!!!COM: Music21
!!!OTL: jig_Its-Only-A-Model
!!!OMV: jig_Its-Only-A-Model
**kern
*clefG2
*k[b-]
*F:
*M6/8
=1
4f
8f
8ffL
8ee
8ccJ
=
8eeL
8ff
8eeJ
8ccL
8b-
8aJ
=
8aL
8b-
8b-J
16ccLL
16ddJ
8cc
8b-J
=
8eeL
8ff
8eeJ
8ccL
8b-
8aJ
=
4f
8f
8ffL
8ee
8ccJ
=
8ddL
8ee
8ffJ
8ggL
8ee
8ccJ
!!linebreak:original
=
8aaL
8bb-
8aaJ
8ffL
8ee
8ccJ
=
8eeL
8ff
8eeJ
8ccL
8b-
8aJ
=||
*M6/8
4f
8f
8ffL
8ee
8ccJ
=
8eeL
8ff
8eeJ
8ccL
8b-
8aJ
=
8aL
8b-
8b-J
16ccLL
16ddJ
8cc
8b-J
=
8eeL
8ff
8eeJ
8ccL
8b-
8aJ
!!linebreak:original
=
4f
8f
8ffL
8ee
8ccJ
=
8ddL
8ee
8ffJ
8ggL
8ee
8ccJ
=
8aaL
8bb-
8aaJ
8ffL
8ee
8ccJ
=
8ggL
8ff
8eeJ
4.cc
=||
8aaL
8bb-
8bb-J
8bb-L
8aa
8ffJ
=
8ccL
8ee
8ggJ
8ccL
8ff
8aaJ
!!linebreak:original
=
8aaL
8bb-
8bb-J
8bb-L
8aa
8ffJ
=
8cccL
8aa
8ffJ
8ggL
8ee
8ccJ
=
8aaL
8bb-
8bb-J
8bb-L
8aa
8ffJ
=
8ccL
8ee
8ggJ
8ccL
8ff
8aaJ
=
8aaL
8bb-
8bb-J
8bb-L
8aa
8ffJ
=
8ggL
8ee
8ccJ
4.cc
!!linebreak:original
=||
8aaL
8bb-
8bb-J
8bb-L
8aa
8ffJ
=
8ccL
8ee
8ggJ
8ccL
8ff
8aaJ
=
8aaL
8bb-
8bb-J
8bb-L
8aa
8ffJ
=
8cccL
8aa
8ffJ
8ggL
8ee
8ccJ
=
8aaL
8bb-
8bb-J
8bb-L
8aa
8ffJ
=
8ccL
8ee
8ggJ
8ccL
8ff
8aaJ
!!linebreak:original
=
8aaL
8bb-
8bb-J
8bb-L
8aa
8ffJ
=
8ggL
8ee
8ccJ
8b-L
8a
8gJ
=||
*-
